X: 32695
T: Polished Turd, The
R: reel
M: 4/4
K: Dmajor
~d3A BcdB|AF~F2 ADFA|~d3A BcdB|AFDF EDFA|
dBBA ~B3d|AF~F2 ABde|fAdf eAce|1 dBAG FDFA:|2 dBAG FDDe||
|:fddc dfef|~g2fg eAde|fddc dFAd|fAdf ~a3g|
fddc dfef|gbfg eAde|fAdf eAce|1 dBAG FDDe:|2 dBAG FDFA||

